X:1
T:Laetamini cum Maria
T:Richard Dering
T:(1580 - 1630)
T:Dering worked in London, Brussels, Venice and Rome.
T:Laetamini cum Maria
T:Cantica Sacra, London, M DC LXII
T:(C) Wim Looyestijn - 2015
T:(C) Wim Looyestijn - 2015
T:(C) Wim Looyestijn - 2015
T:(C) Wim Looyestijn - 2015
T:(C) Wim Looyestijn - 2015
T:(C) Wim Looyestijn - 2015
T:(C) Wim Looyestijn - 2015
T:(C) Wim Looyestijn - 2015
T:(C) Wim Looyestijn - 2015
C:Richard Dering
Z:(C) Wim Looyestijn - 2015
%%score 1 2 3 4
L:1/8
Q:1/4=60
M:2/2
K:C
V:1 treble nm="MusicXML Part"
V:2 treble-8 nm="MusicXML Part"
V:3 bass nm="MusicXML Part"
V:4 bass nm="MusicXML Part"
V:1
 z8 | z8 | z8 | z4 d4- | d4 B3 B | B2 d4 G2 | A8 | G8 | z8 | z8 | z8 | z4 c4 | B3 B B2 c2- | %13
w: |||Lae-|* ta- mi-|ni cum Ma-|ri-|a,||||lae-|ta- mi- ni cum|
 c2 B2 ^G4 | A8 | z8 | c8- | c4 B4 | z8 | z8 | z8 | z8 | B2 c2 d2 cB | ^c2 d4 c2 | d8 | B8 | A8 | %27
w: * Ma- ri-|a,||om-|* nes|||||qui di- li- gi- tis|e- * *|am,|Om-|nes|
 z4 B2 c2 | d2 cB A4 | B8 | z8 | z8 | z8 | z8 | z8 | z8 | z8 | z8 | z8 | z8 | A6 A2 | A4 B4 | %42
w: qui di-|li- gi- tis e-|am.|||||||||||Quo- ni-|am in|
 c6 A2 | B8 | A4 z4 | z2 c2 B2 A2 | B4 B2 e2 | d2 c2 d4 | c4 z2 c2 | B2 B2 A4 | G8 | %51
w: pro- le|ma-|ter|in par- tu|vir- go, in|par- tu vir-|go, in|par- tu vir-|go.|
[M:3/2] B6 c2 A2 A2 | ^G6 A2 A2 B2 | c8 B4 | c12 | G6 A2 B2 c2 | B6 B2 e4 | d2 c2 B8 |[M:2/2] A8 | %59
w: Gau- de et lae-|ta- re, et lae-|ta- *|re,|gau- de et lae-|ta- re, et|lae- * ta-|re.|
 z8 | z8 | z8 | z8 | z8 | z8 | z8 | z8 | z8 | z4 c4- | c4 c4 | B4 B4 | A6 A2 | G8 | %73
w: |||||||||Vir-|* go|ma- ter|Do- mi-|ni|
[M:3/2] B6 B2 A2 A2 | ^G6 A2 A2 B2 | c8 B4 | c12 | G6 A2 B2 c2 | B6 B2 e4 | d2 c2 B8 | %80
w: Gau- de et lae-|ta- re, et lae-|ta- *|re,|gau- de et lae-|ta- re, et|lae- * ta-|
[M:2/2] A4 e4- | e4 ^c4- | c4 d4- | d4 c4 | B6 B2 | B4 c4- | c4 A4- | A4 B4- | B4 G4 | ^F4 G4- | %90
w: re, vir-|* go|* ma-|* ter|Do- mi-|ni, vir-|* go,|* mat-|* ter|Do- *|
 G4 ^F4 | G8 |[M:3/2] d4 B4 c4 | d2 e2 c2 d2 B2 c2 | d2 G2 A4 A4 | G8 z4 | z12 | z12 | z12 | z12 | %100
w: * mi-|ni.|Al- le- lu-|ia, * * * * *|* al- le- lu-|ia,|||||
 z12 | c4 A4 B4 | c2 d2 e2 d2 c2 A2 | d4 d4 ^c4 | d6 cB A4 | B4 A4 G4 | ^F2 E2 F2 G2 A2 B2 | %107
w: |al- le- lu-|ia, * * * * *|al- le- lu-|ia, * * *|al- le- lu-|ia, * * * * *|
 c4 B4 A4 | ^G2 ^F2 G2 A2 G2 A2 | B4 A4 A4 |[M:2/2] G8 | z2 d2 c2 A2 | ^F2 F2 G4 | ^F2 G4 F2 | %114
w: al- le- lu-|ia, * * * * *|al- le- lu-|ia,|al- le- lu-|ia, al- le-|lu- * *|
 G16 |] %115
w: ia.|
V:2
 d8 | B3 B B2 d2- | d2 G2 A4 | G8 | z8 | z8 | z8 | z8 | z8 | z8 | z8 | z4 e4 | d3 d d2 e2- | %13
w: Lae-|ta- mi- ni cum|* Ma- ri-|a,||||||||lae-|ta- mi- ni cum|
 e2 c2 B4 | A8 | z8 | e8 | d8 | z8 | z8 | B2 c2 d2 cB | A8 | G4 z4 | z8 | z8 | d8- | d4 c4 | %27
w: * Ma- ri-|a,||om-|nes|||qui di- li- gi- tis|e-|am,|||Om-|* nes|
 z4 G2 A2 | B2 AG ^F4 | G8 | z8 | z8 | z8 | z8 | z8 | c6 c2 | c4 A4 | d8- | d4 B4 | ^c2 d4 c2 | %40
w: qui di-|li- gi- tis e-|am.||||||Quo- ni-|am in|pro-|* le|ma- * *|
 d4 z4 | z8 | z8 | z8 | z2 c2 A2 ^G2 | A8 | ^G4 z2 c2 | B2 A2 B4 | c4 z2 A2 | ^FF G4 F2 | G8 | %51
w: ter||||in par- tu|vir-|go, in|par- tu vir-|go, in|par- tu vir- *|go.|
[M:3/2] d6 e2 c2 d2 | B6 A2 d4 | e4 d8 | c12 | e6 c2 B2 A2 | ^G6 G2 c4 | B2 A2 ^G2 A4 G2 | %58
w: Gau- de et lae-|ta- re, et|lae- ta-|re,|gau- de et lae-|ta- re, et|lae- ta- * * *|
[M:2/2] A8 | z8 | z8 | z8 | z8 | z8 | z4 d4- | d4 B4 | B4 A4 | B6 B2 | A8 | z8 | z8 | z8 | z8 | %73
w: re.||||||Vir-|* go|ma- ter|Do- mi-|ni|||||
[M:3/2] d6 e2 c2 d2 | B6 A2 d4 | e4 d8 | c12 | e6 c2 B2 A2 | ^G6 G2 c4 | B2 A2 ^G2 A4 G2 | %80
w: Gau- de et lae-|ta- re, et|lae- ta-|re,|gau- de et lae-|ta- re, et|lae- ta- * * *|
[M:2/2] A8 | ^c8 | A8 | B4 A4 | ^G6 G2 | ^G8 | A8 | ^F8 | G4 B4 | d6 B2 | A6 A2 | G8 |[M:3/2] z12 | %93
w: re,|vir-|go|ma- ter|Do- mi-|ni,|vir-|go,|vir- go|mat- ter|Do- mi-|ni.||
 z12 | z12 | z12 | z12 | c4 A4 B4 | c2 d2 B2 c2 d2 B2 | c2 G2 A4 A4 | G12 | e4 c4 d4 | %102
w: ||||Al- le- lu-|ia, * * * * *|* al- le- lu-|ia,|al- le- lu-|
 e2 d2 c2 B2 A4 | f4 e4 e4 | d12 | d4 c4 B4 | A2 G2 A2 B2 c2 d2 | e4 d4 c4 | B2 A2 B2 c2 B2 c2 | %109
w: ia, * * * *|al- le- lu-|ia,|al- le- lu-|ia, * * * * *|al- le- lu-|ia, * * * * *|
 d2 G2 G4 ^F4 |[M:2/2] G4 z2 e2 | d2 d2 e2 c2 | B8 | A8 | G16 |] %115
w: * al- le- lu-|ia, al-|le- lu- ia, al-|le-|lu-|ia.|
V:3
 z8 | z8 | z8 | z8 | z8 | z8 | z8 | z4 G,4- | G,4 E,3 E, | E,2 A,4 E,2 | G,8 | C,4 C4 | %12
w: |||||||Lae-|* ta- mi-|ni cum Ma-|ri-|a, lae-|
 G,3 G, G,2 C,2- | C,2 D,2 E,4 | A,,8 | z8 | C,8 | G,8 | E,2 F,2 G,2 F,E, | D,8 | G,,4 z4 | z8 | %22
w: ta- mi- ni cum|* Ma- ri-|a,||om-|nes|qui di- li- gi- tis|e-|am,||
 z8 | z8 | z8 | G,8 | ^F,8 | E,2 ^F,2 G,2 F,E, | D,8 | G,,8 | G,6 G,2 | G,4 E,4 | A,8- | A,4 E,4 | %34
w: |||Om-|nes|qui di- li- gi- tis|e-|am.|Quo- ni-|am in|pro-|* le|
 G,8 | C,8 | z8 | z8 | z8 | z8 | z8 | z8 | z8 | z8 | z2 A,2 F,2 E,2 | F,8 | E,2 E,2 D,2 C,2 | G,8 | %48
w: ma-|ter|||||||||in par- tu|vir-|go, in par- tu|vir-|
 C,2 C,2 B,,2 A,,2 | D,8 | G,,8 |[M:3/2] G,6 E,2 F,2 D,2 | E,6 F,2 D,4 | C,4 G,8 | C,12 | %55
w: go, in par- tu|vir-|go.|Gau- de et lae-|ta- re, et|lae- ta-|re,|
 C6 A,2 ^G,2 A,2 | E,6 E,2 C,4 | D,4 E,8 |[M:2/2] A,,8 | z4 A,4- | A,4 G,4 | F,4 E,4 | A,8- | %63
w: gau- de et lae-|ta- re, et|lae- ta-|re.|Vir-|* go|ma- ter|Do-|
 A,4 A,4 | D,8 | z8 | z8 | z8 | z8 | z8 | z8 | z8 | z8 |[M:3/2] G,6 E,2 F,2 D,2 | E,6 F,2 D,4 | %75
w: * mi-|ni|||||||||Gau- de et lae-|ta- re, et|
 C,4 G,8 | C,12 | C6 A,2 ^G,2 A,2 | E,6 E,2 C,4 | D,4 E,8 |[M:2/2] A,,8 | A,8 | ^F,8 | G,4 A,4 | %84
w: lae- ta-|re,|gau- de et lae-|ta- re, et|lae- ta-|re,|vir-|go|ma- ter|
 E,6 E,2 | E,8 | F,8 | D,8 | E,6 G,2 | D,8- | D,4 D,4 | G,,8 |[M:3/2] z12 | z12 | z12 | %95
w: Do- mi-|ni,|vir-|go|mat- ter|Do-|* mi-|ni.||||
 G,4 E,4 F,4 | G,2 A,2 E,2 D,2 C,4 | E,4 F,4 G,4 | C,4 z4 z4 | z12 | z12 | C,4 F,4 D,4 | %102
w: Al- le- lu-|ia, * * * *|al- le- lu-|ia,|||al- le- lu-|
 C,6 D,E, F,4 | D,4 A,4 A,,4 | D,12 | B,,4 C,4 G,,4 | D,12 | C,4 G,4 A,4 | E,12 | B,,4 C,4 D,4 | %110
w: ia, * * *|al- le- lu-|ia,|al- le- lu-|ia,|al- le- lu-|ia,|al- le- lu-|
[M:2/2] G,,2 G,2 E,2 C,2 | B,,4 C,4 | D,8- | D,4 D,4 | G,,16 |] %115
w: ia, al- le- lu-|ia, al-|le-|* lu-|ia.|
V:4
 G,8- | G,8 | G,4 D,4 | G,,8 | G,8- | G,8 | D,8 | G,,4 G,4- | G,4 E,4 | E,2 A,4 E,2 | G,8 | %11
 C,4 C4 | G,4 G,2 C,2- | C,2 D,2 E,4 | A,,8 | E,8- | E,8 | G,,8 | E,2 F,2 G,2 F,E, | D,8 | G,,8 | %21
 D,8 | G,,4 G,4 | A,8 | D,8 | G,8 | ^F,8 | E,2 ^F,2 G,2 F,E, | D,8 | G,,8 | G,6 G,2 | G,4 E,4 | %32
 A,8- | A,4 E,4 | G,8 | C,8 | F,8 | D,8 | G,8 | A,8 | D,8 | A,4 ^G,4 | A,8 | E,8 | %44
 A,,2 A,2 F,2 E,2 | F,8 | E,4 D,2 C,2 | G,8 | C,4 B,,2 A,,2 | D,8 | G,,8 |[M:3/2] G,6 E,2 F,2 D,2 | %52
 E,6 F,2 D,4 | C,4 G,8 | C,12 | C6 A,2 ^G,2 A,2 | E,6 E,2 C,4 | D,4 E,8 |[M:2/2] A,,8 | A,8- | %60
 A,4 G,4 | F,4 E,4 | A,8- | A,4 A,4 | D,8 | G,8 | E,4 F,4 | E,8 | A,,8- | A,,4 A,,4 | B,,6 C,2 | %71
 D,8 | G,,8 |[M:3/2] G,6 E,2 F,2 D,2 | E,6 F,2 D,4 | C,4 G,8 | C,12 | C6 A,2 ^G,2 A,2 | %78
 E,6 E,2 C,4 | D,4 E,8 |[M:2/2] A,,8 | A,8 | ^F,8 | G,4 A,4 | E,8- | E,8 | F,8 | D,8 | E,6 G,2 | %89
 D,8- | D,8 | G,,8 |[M:3/2] G,8 A,4 | G,12 | B,,4 C,4 D,4 | G,4 E,4 F,4 | G,2 A,2 E,2 D,2 C,4 | %97
 E,4 F,4 G,4 | C,4 G,8 | E,4 D,8 | G,,12 | C,4 F,4 D,4 | C,6 D,E, F,4 | D,4 A,4 A,,4 | D,12 | %105
 B,,4 C,4 G,,4 | D,12 | C,4 G,4 A,4 | E,12 | B,,4 C,4 D,4 |[M:2/2] G,,2 G,2 E,2 C,2 | B,,4 C,4 | %112
 D,8- | D,8 | G,,16 |] %115

